X:9
T:Mrs. Scott Skinner
C:J. Scott Skinner
R:marching air
O:Cape Breton setting - without some of Skinner's accidentals etc.
D:Joe Cormier, The Dances Down Home
B:Skye, Scottish Violinist
H:Cape Breton
Z:Paul Stewart Cranford (P.S.C.), <http://www.cranfordpub.com>
L:1/8
Q:166
M:C
K:D
A,|D>F AA/B/ B/A/G/F/ de/f/|f/e/d/c/ dF E2 EF|D>F AA/B/ B/A/G/F/ d z/G/|A<d fe d2 d:|
||f/g/|{f/g/}a>fdA B<gg>B|A<f ed e2 ef/g/|{f/g/}a>fdA B<ggB|A<f fe d2 df|
g/a/b/a/ fd B<ggB|A<f ed ec AG|F/E/F/G/ AB B/A/G/F/ d z/G/|A<d fe d2 d||
|:A,|D/E/F/G/ A/G/A/B/ B/A/G/F/ de/f/|f/e/d/c/ dF E2 E>F|\
D/E/F/G/ A/G/A/B/ B/A/G/F/ dG|A<d fe d2 d:|
||f|g/a/b/a/ g/f/e/d/ B/d/e/f/ g>B|A<fed e2 ef|g/a/b/a/ g/f/e/d/ B/d/e/f/ g>B|A<d fe d2 df|
g/a/b/a/ g/f/e/d/ B/d/e/f/ g>B|A<f ed ec AG|F/E/F/G/ AB B/A/G/F/ d z/G/|A<d fe d2 d|]
